assets/svgs/illustration-book-binding.svg

<svg width="200" height="160" viewBox="0 0 200 160" fill="none" xmlns="http://www.w3.org/2000/svg" class="svg__illustration-book-binding">
<path d="M93.7554 152.114L94.5033 152.057L94.5033 152.057L93.7554 152.114ZM106.89 152.118L107.637 152.192L107.637 152.192L106.89 152.118ZM23.281 41.4164L24.0308 41.4313L23.281 41.4164ZM177.335 41.4198L176.585 41.4341L176.585 41.4341L177.335 41.4198ZM27.2802 38.2461H173.335V36.7461H27.2802V38.2461ZM104.795 153.365H95.8279V154.865H104.795V153.365ZM94.5033 152.057C94.0922 146.629 91.9797 143.199 88.3641 141.185C84.8306 139.217 79.9626 138.663 74.1751 138.663V140.163C79.9368 140.163 84.4629 140.729 87.6342 142.496C90.7233 144.216 92.6264 147.137 93.0076 152.17L94.5033 152.057ZM107.637 152.192C108.089 147.618 110.188 144.66 113.414 142.81C116.69 140.932 121.187 140.163 126.448 140.163V138.663C121.084 138.663 116.277 139.439 112.668 141.509C109.009 143.607 106.642 147.002 106.144 152.044L107.637 152.192ZM126.448 140.163H175.704V138.663H126.448V140.163ZM25.0836 140.163H74.1751V138.663H25.0836V140.163ZM22.1883 133.867L24.0308 41.4313L22.5311 41.4014L20.6886 133.837L22.1883 133.867ZM176.585 41.4341L178.347 133.867L179.847 133.838L178.084 41.4055L176.585 41.4341ZM95.8279 153.365C95.1538 153.365 94.56 152.806 94.5033 152.057L93.0076 152.17C93.1176 153.623 94.2929 154.865 95.8279 154.865V153.365ZM104.795 154.865C106.332 154.865 107.495 153.626 107.637 152.192L106.144 152.044C106.068 152.808 105.467 153.365 104.795 153.365V154.865ZM173.335 38.2461C175.106 38.2461 176.551 39.6637 176.585 41.4341L178.084 41.4055C178.035 38.8179 175.923 36.7461 173.335 36.7461V38.2461ZM27.2802 36.7461C24.6937 36.7461 22.5827 38.8155 22.5311 41.4014L24.0308 41.4313C24.0661 39.662 25.5105 38.2461 27.2802 38.2461V36.7461Z" fill="#0B6AB7" class="svg__fill--primary-blue-03"/>
<path d="M126.448 134.164L126.448 133.414L126.448 134.164ZM74.1749 134.164L74.175 134.914L74.1749 134.164ZM97.2777 147.816V148.566H98.7777V147.816H97.2777ZM101.845 147.816V148.566H103.345V147.816H101.845ZM126.448 134.914H186.687V133.414H126.448V134.914ZM13.9316 134.164C13.9316 134.914 13.9318 134.914 13.9321 134.914C13.9324 134.914 13.9328 134.914 13.9334 134.914C13.9346 134.914 13.9365 134.914 13.9389 134.914C13.9437 134.914 13.951 134.914 13.9607 134.914C13.98 134.914 14.0088 134.914 14.0469 134.914C14.1232 134.914 14.2367 134.914 14.3856 134.914C14.6835 134.914 15.1229 134.914 15.6894 134.914C16.8224 134.914 18.4636 134.914 20.4963 134.914C24.5617 134.914 30.1932 134.914 36.4577 134.915C48.9866 134.915 64.0475 134.915 74.175 134.914L74.1748 133.414C64.0474 133.415 48.9866 133.415 36.4577 133.415C30.1932 133.414 24.5617 133.414 20.4963 133.414C18.4636 133.414 16.8225 133.414 15.6895 133.414C15.123 133.414 14.6835 133.414 14.3857 133.414C14.2368 133.414 14.1233 133.414 14.047 133.414C14.0089 133.414 13.98 133.414 13.9607 133.414C13.9511 133.414 13.9438 133.414 13.939 133.414C13.9365 133.414 13.9347 133.414 13.9335 133.414C13.9329 133.414 13.9324 133.414 13.9321 133.414C13.9318 133.414 13.9317 133.414 13.9316 134.164ZM98.7777 147.816C98.7777 144.215 97.5538 141.47 95.6063 139.408C93.6757 137.364 91.0725 136.032 88.3596 135.156C82.9453 133.409 76.8696 133.414 74.1748 133.414L74.175 134.914C76.8881 134.914 82.7388 134.918 87.8989 136.584C90.4732 137.415 92.8192 138.642 94.516 140.438C96.1959 142.216 97.2777 144.591 97.2777 147.816H98.7777ZM103.345 147.816C103.345 141.998 107.54 138.772 112.706 136.972C117.862 135.176 123.724 134.914 126.448 134.914L126.448 133.414C123.672 133.414 117.608 133.676 112.212 135.556C106.827 137.432 101.845 141.031 101.845 147.816H103.345Z" fill="#0B6AB7" class="svg__fill--primary-blue-03"/>
<path d="M27.5377 134.164C27.5377 134.164 29.876 134.894 29.876 137.148C29.876 138.211 29.3547 138.936 28.8044 139.404" stroke="#0B6AB7" stroke-width="1.5" class="svg__fill--primary-blue-03"/>
<path d="M173.337 134.164C173.337 134.164 170.999 134.894 170.999 137.148C170.999 138.211 171.52 138.936 172.071 139.404" stroke="#0B6AB7" stroke-width="1.5" class="svg__stroke--primary-blue-03"/>
<mask id="path-5-inside-1_328_10447" fill="white" class="svg__fill--white">
<path d="M33.3925 9.02269L31.465 98.4435C31.4167 100.686 33.2047 102.53 35.4476 102.53H84.5695C96.3731 102.53 94.8595 105.286 98.2176 116.418C98.4688 117.251 99.2426 117.817 100.112 117.817H100.307H100.681C101.551 117.817 102.325 117.251 102.571 116.417C105.606 106.125 103.938 102.53 116.049 102.53H165.169C167.412 102.53 169.198 100.686 169.15 98.4435L167.222 9.02269C167.175 6.84764 165.399 5.10889 163.223 5.10889H110.164C107.877 5.10889 105.7 6.08714 104.182 7.79668L100.307 12.1598L96.4326 7.79669C94.9144 6.08715 92.7373 5.10889 90.4509 5.10889H37.3916C35.2161 5.10889 33.4394 6.84765 33.3925 9.02269Z"/>
</mask>
<path d="M33.3925 9.02269L31.465 98.4435C31.4167 100.686 33.2047 102.53 35.4476 102.53H84.5695C96.3731 102.53 94.8595 105.286 98.2176 116.418C98.4688 117.251 99.2426 117.817 100.112 117.817H100.307H100.681C101.551 117.817 102.325 117.251 102.571 116.417C105.606 106.125 103.938 102.53 116.049 102.53H165.169C167.412 102.53 169.198 100.686 169.15 98.4435L167.222 9.02269C167.175 6.84764 165.399 5.10889 163.223 5.10889H110.164C107.877 5.10889 105.7 6.08714 104.182 7.79668L100.307 12.1598L96.4326 7.79669C94.9144 6.08715 92.7373 5.10889 90.4509 5.10889H37.3916C35.2161 5.10889 33.4394 6.84765 33.3925 9.02269Z" fill="white" class="svg__fill--white"/>
<path d="M101.057 12.1598C101.057 11.7455 100.722 11.4098 100.307 11.4098C99.8931 11.4098 99.5573 11.7455 99.5573 12.1598H101.057ZM99.5573 12.1598V64.9886H101.057V12.1598H99.5573ZM99.5573 64.9886V91.403H101.057V64.9886H99.5573ZM99.5573 91.403V104.61H101.057V91.403H99.5573ZM31.465 98.4435L29.9654 98.4112L29.9654 98.4112L31.465 98.4435ZM33.3925 9.02269L31.8929 8.99037L31.8929 8.99037L33.3925 9.02269ZM167.222 9.02269L168.722 8.99036L168.722 8.99036L167.222 9.02269ZM169.15 98.4435L170.649 98.4112L170.649 98.4112L169.15 98.4435ZM98.2176 116.418L99.6537 115.985L99.6537 115.985L98.2176 116.418ZM102.571 116.417L101.132 115.992L101.132 115.993L102.571 116.417ZM100.307 12.1598L99.1858 13.1558C99.4704 13.4763 99.8786 13.6598 100.307 13.6598C100.736 13.6598 101.144 13.4763 101.429 13.1558L100.307 12.1598ZM104.182 7.79668L105.304 8.79272L105.304 8.79272L104.182 7.79668ZM96.4326 7.79669L95.311 8.79272L95.311 8.79272L96.4326 7.79669ZM32.9647 98.4758L34.8922 9.05502L31.8929 8.99037L29.9654 98.4112L32.9647 98.4758ZM165.723 9.05501L167.65 98.4758L170.649 98.4112L168.722 8.99036L165.723 9.05501ZM116.049 104.03H165.169V101.03H116.049V104.03ZM35.4476 104.03H84.5695V101.03H35.4476V104.03ZM99.6537 115.985C98.8117 113.194 98.3155 111.07 97.7719 109.144C97.2558 107.316 96.7041 105.693 95.7727 104.416C93.7614 101.657 90.4114 101.03 84.5695 101.03V104.03C90.5312 104.03 92.3262 104.781 93.3485 106.183C93.934 106.986 94.3712 108.14 94.8847 109.959C95.3706 111.681 95.9445 114.077 96.7815 116.851L99.6537 115.985ZM104.01 116.841C104.777 114.24 105.266 111.99 105.707 110.279C106.166 108.497 106.57 107.311 107.149 106.454C108.154 104.967 110 104.03 116.049 104.03V101.03C109.986 101.03 106.611 101.89 104.663 104.774C103.766 106.102 103.262 107.744 102.802 109.531C102.323 111.389 101.883 113.448 101.132 115.992L104.01 116.841ZM100.681 116.317H100.307V119.317H100.681V116.317ZM100.307 116.317H100.112V119.317H100.307V116.317ZM101.429 13.1558L105.304 8.79272L103.061 6.80064L99.1858 11.1637L101.429 13.1558ZM110.164 6.60889H163.223V3.60889H110.164V6.60889ZM37.3916 6.60889H90.4509V3.60889H37.3916V6.60889ZM95.311 8.79272L99.1858 13.1558L101.429 11.1637L97.5542 6.80065L95.311 8.79272ZM105.304 8.79272C106.537 7.40372 108.306 6.60889 110.164 6.60889V3.60889C107.449 3.60889 104.863 4.77056 103.061 6.80064L105.304 8.79272ZM96.7815 116.851C97.2266 118.327 98.5908 119.317 100.112 119.317V116.317C99.8943 116.317 99.711 116.175 99.6537 115.985L96.7815 116.851ZM101.132 115.993C101.079 116.174 100.901 116.317 100.681 116.317V119.317C102.2 119.317 103.572 118.328 104.01 116.841L101.132 115.993ZM29.9654 98.4112C29.8991 101.486 32.3555 104.03 35.4476 104.03V101.03C34.0539 101.03 32.9343 99.8855 32.9647 98.4758L29.9654 98.4112ZM167.65 98.4758C167.68 99.8863 166.562 101.03 165.169 101.03V104.03C168.262 104.03 170.716 101.485 170.649 98.4112L167.65 98.4758ZM168.722 8.99036C168.657 5.99968 166.214 3.60889 163.223 3.60889V6.60889C164.583 6.60889 165.693 7.6956 165.723 9.05502L168.722 8.99036ZM90.4509 6.60889C92.3086 6.60889 94.0775 7.40372 95.311 8.79272L97.5542 6.80065C95.7513 4.77057 93.166 3.60889 90.4509 3.60889V6.60889ZM34.8922 9.05502C34.9215 7.69561 36.0319 6.60889 37.3916 6.60889V3.60889C34.4002 3.60889 31.9574 5.99969 31.8929 8.99037L34.8922 9.05502Z" fill="#0B6AB7" mask="url(#path-5-inside-1_328_10447)" class="svg__fill--primary-blue-03"/>
<path d="M71.4307 28.3816H88.895" stroke="#0AA5FF" stroke-width="1.25" class="svg__stroke--default-cyan-03"/>
<path d="M71.4307 34.6646H88.895" stroke="#0AA5FF" stroke-width="1.25" class="svg__stroke--default-cyan-03"/>
<path d="M71.4307 40.9465H88.895" stroke="#0AA5FF" stroke-width="1.25" class="svg__stroke--default-cyan-03"/>
<path d="M45.3916 47.2305L88.8952 47.2305" stroke="#0AA5FF" stroke-width="1.25" class="svg__stroke--default-cyan-03"/>
<path d="M45.3916 53.5811L88.8952 53.5811" stroke="#0AA5FF" stroke-width="1.25" class="svg__stroke--default-cyan-03"/>
<path d="M45.3916 59.864L88.8952 59.864" stroke="#0AA5FF" stroke-width="1.25" class="svg__stroke--default-cyan-03"/>
<path d="M45.3916 66.1807L88.8952 66.1807" stroke="#0AA5FF" stroke-width="1.25" class="svg__stroke--default-cyan-03"/>
<path d="M45.3916 72.4646L88.8952 72.4646" stroke="#0AA5FF" stroke-width="1.25" class="svg__stroke--default-cyan-03"/>
<path d="M45.3916 78.7805L71.4308 78.7805" stroke="#0AA5FF" stroke-width="1.25" class="svg__stroke--default-cyan-03"/>
<path d="M112.177 28.3018H155.681" stroke="#0AA5FF" stroke-width="1.25" class="svg__stroke--default-cyan-03"/>
<path d="M112.177 34.5847H155.681" stroke="#0AA5FF" stroke-width="1.25" class="svg__stroke--default-cyan-03"/>
<path d="M112.177 40.8677H155.681" stroke="#0AA5FF" stroke-width="1.25" class="svg__stroke--default-cyan-03"/>
<path d="M112.177 47.1506L155.681 47.1506" stroke="#0AA5FF" stroke-width="1.25" class="svg__stroke--default-cyan-03"/>
<path d="M112.177 53.5012L155.681 53.5012" stroke="#0AA5FF" stroke-width="1.25" class="svg__stroke--default-cyan-03"/>
<path d="M112.177 59.7842L155.681 59.7842" stroke="#0AA5FF" stroke-width="1.25" class="svg__stroke--default-cyan-03"/>
<path d="M112.177 66.1008L155.681 66.1008" stroke="#0AA5FF" stroke-width="1.25" class="svg__stroke--default-cyan-03"/>
<path d="M112.177 72.3848L155.681 72.3848" stroke="#0AA5FF" stroke-width="1.25" class="svg__stroke--default-cyan-03"/>
<path d="M112.177 78.7007L149.855 78.7007" stroke="#0AA5FF" stroke-width="1.25" class="svg__stroke--default-cyan-03"/>
<path d="M55.3249 18L62.6258 21.0241L65.6499 28.3249L62.6258 35.6258L55.3249 38.6499L48.0241 35.6258L45 28.3249L48.0241 21.0241L55.3249 18Z" stroke="#FFD600" stroke-width="1.25" class="svg__stroke--secondary-yellow-03"/>
<path d="M156.094 105.622V119.154" stroke="#00E0E0" stroke-width="1.25" stroke-linecap="round" stroke-linejoin="round" stroke-dasharray="0.13 4"/>
<path d="M45.3916 105.771L45.3916 119.005" stroke="#00E0E0" stroke-width="1.25" stroke-linecap="round" stroke-linejoin="round" stroke-dasharray="0.13 4" class="svg__stroke--help-green-03"/>
<path d="M122.495 105.347L122.495 122.706" stroke="#00E0E0" stroke-width="1.25" stroke-linecap="round" stroke-linejoin="round" stroke-dasharray="0.13 4" class="svg__stroke--help-green-03"/>
<path d="M79.1133 105.347L79.1133 122.706" stroke="#00E0E0" stroke-width="1.25" stroke-linecap="round" stroke-linejoin="round" stroke-dasharray="0.13 4" class="svg__stroke--help-green-03"/>
<path d="M152.281 118.699L156.094 122.512L159.906 118.699" stroke="#00E0E0" class="svg__stroke--help-green-03"/>
<path d="M49.4014 118.699L45.5885 122.512L41.7762 118.699" stroke="#00E0E0" class="svg__stroke--help-green-03"/>
<path d="M118.682 122.899L122.495 126.711L126.307 122.899" stroke="#00E0E0" class="svg__stroke--help-green-03"/>
<path d="M83 122.899L79.1872 126.711L75.3748 122.899" stroke="#00E0E0" class="svg__stroke--help-green-03"/>
</svg>

<svg width="200" height="160" viewBox="0 0 200 160" fill="none" xmlns="http://www.w3.org/2000/svg" class="svg__illustration-book-binding">
  <path d="M126.448 139.414c-10.625 0-18.607 3.088-19.558 12.704-.108 1.099-.99 1.998-2.095 1.998h-8.967c-1.104 0-1.989-.901-2.072-2.002-.793-10.462-8.031-12.7-19.58-12.7H25.083m101.364 0h49.256-49.256Zm52.649-5.562-1.762-92.432a4 4 0 0 0-3.999-3.924H27.28a4 4 0 0 0-3.999 3.92l-1.842 92.436" stroke="#0B6AB7" stroke-width="1.5" class="svg__stroke--primary-blue-03"/>
  <path d="M126.448 134.164v-.75.75Zm-52.273 0v.75-.75Zm23.103 13.652v.75h1.5v-.75h-1.5Zm4.567 0v.75h1.5v-.75h-1.5Zm24.603-12.902h60.239v-1.5h-60.239v1.5Zm-112.516-.75v.75h6.565l15.961.001 37.718-.001v-1.5l-37.718.001-15.961-.001H13.933v.75Zm84.846 13.652c0-3.601-1.224-6.346-3.171-8.408-1.93-2.044-4.534-3.376-7.247-4.252-5.414-1.747-11.49-1.742-14.185-1.742v1.5c2.714 0 8.564.004 13.724 1.67 2.575.831 4.92 2.058 6.617 3.854 1.68 1.778 2.762 4.153 2.762 7.378h1.5Zm4.567 0c0-5.818 4.195-9.044 9.361-10.844 5.156-1.796 11.019-2.058 13.742-2.058v-1.5c-2.776 0-8.839.262-14.235 2.142-5.386 1.876-10.368 5.475-10.368 12.26h1.5Z" fill="#0B6AB7" class="svg__fill--primary-blue-03"/>
  <path d="M27.538 134.163s2.338.731 2.338 2.984c0 1.064-.52 1.789-1.071 2.257M173.338 134.163s-2.338.731-2.338 2.984c0 1.064.521 1.789 1.071 2.257" stroke="#0B6AB7" stroke-width="1.5" class="svg__stroke--primary-blue-03"/>
  <mask id="a" fill="#fff" class="svg__fill--white">
    <path d="m33.393 9.023-1.927 89.42a3.986 3.986 0 0 0 3.982 4.087H84.57c11.804 0 10.29 2.756 13.648 13.888a1.977 1.977 0 0 0 1.895 1.399h.569c.869 0 1.644-.566 1.89-1.4 3.034-10.292 1.366-13.887 13.478-13.887h49.119a3.985 3.985 0 0 0 3.981-4.087l-1.927-89.42a4 4 0 0 0-3.999-3.914h-53.059a8 8 0 0 0-5.982 2.688l-3.875 4.363-3.875-4.363a8 8 0 0 0-5.981-2.688h-53.06a4 4 0 0 0-3.999 3.914Z"/>
  </mask>
  <path d="m33.393 9.023-1.927 89.42a3.986 3.986 0 0 0 3.982 4.087H84.57c11.804 0 10.29 2.756 13.648 13.888a1.977 1.977 0 0 0 1.895 1.399h.569c.869 0 1.644-.566 1.89-1.4 3.034-10.292 1.366-13.887 13.478-13.887h49.119a3.985 3.985 0 0 0 3.981-4.087l-1.927-89.42a4 4 0 0 0-3.999-3.914h-53.059a8 8 0 0 0-5.982 2.688l-3.875 4.363-3.875-4.363a8 8 0 0 0-5.981-2.688h-53.06a4 4 0 0 0-3.999 3.914Z" fill="#fff" class="svg__fill--white"/>
  <path d="M101.058 12.16a.75.75 0 0 0-1.5 0h1.5Zm-1.5 0v52.829h1.5v-52.83h-1.5Zm0 52.829v26.414h1.5V64.989h-1.5Zm0 26.414v13.207h1.5V91.403h-1.5Zm-68.092 7.04-1.5-.032 1.5.032Zm1.927-89.42-1.5-.033 1.5.033Zm133.83 0 1.5-.033-1.5.033Zm1.927 89.42 1.5-.032-1.5.032Zm-70.932 17.975 1.436-.433-1.436.433Zm4.354-.001-1.439-.425v.001l1.439.424ZM100.308 12.16l-1.122.996a1.5 1.5 0 0 0 2.244 0l-1.122-.996Zm3.875-4.363 1.121.996-1.121-.996Zm-7.75 0-1.121.996 1.121-.996ZM32.965 98.476l1.928-89.421-3-.065-1.927 89.421 3 .065ZM165.723 9.055l1.928 89.42 2.999-.064-1.927-89.42-3 .064ZM116.05 104.03h49.119v-3H116.05v3Zm-80.602 0H84.57v-3H35.448v3Zm64.206 11.955c-.842-2.791-1.338-4.915-1.881-6.841-.516-1.828-1.068-3.451-2-4.728-2.01-2.759-5.36-3.386-11.203-3.386v3c5.962 0 7.757.751 8.78 2.153.585.803 1.022 1.957 1.535 3.776.486 1.722 1.06 4.118 1.897 6.892l2.872-.866Zm4.357.856c.767-2.601 1.256-4.851 1.696-6.562.459-1.782.864-2.968 1.443-3.825 1.004-1.487 2.851-2.424 8.9-2.424v-3c-6.063 0-9.438.86-11.386 3.744-.897 1.328-1.402 2.97-1.862 4.757-.478 1.858-.919 3.917-1.669 6.461l2.878.849Zm-3.329-.524h-.374v3h.374v-3Zm-.374 0h-.195v3h.195v-3Zm1.122-103.161 3.874-4.363-2.243-1.992-3.875 4.363 2.244 1.992Zm8.735-6.547h53.059v-3h-53.059v3Zm-72.773 0h53.06v-3h-53.06v3Zm57.92 2.184 3.874 4.363 2.244-1.992L97.555 6.8l-2.243 1.992Zm9.992 0a6.502 6.502 0 0 1 4.861-2.184v-3a9.5 9.5 0 0 0-7.104 3.192l2.243 1.992ZM96.782 116.85a3.476 3.476 0 0 0 3.331 2.466v-3a.477.477 0 0 1-.459-.332l-2.872.866Zm4.351-.858a.466.466 0 0 1-.451.324v3c1.519 0 2.89-.989 3.329-2.476l-2.878-.848ZM29.966 98.411c-.066 3.075 2.39 5.619 5.482 5.619v-3a2.487 2.487 0 0 1-2.483-2.554l-2.999-.065Zm137.685.065a2.486 2.486 0 0 1-2.482 2.554v3c3.093 0 5.547-2.545 5.481-5.619l-2.999.065Zm1.072-89.486a5.5 5.5 0 0 0-5.499-5.381v3a2.5 2.5 0 0 1 2.499 2.446l3-.065ZM90.452 6.61a6.5 6.5 0 0 1 4.86 2.184L97.555 6.8a9.5 9.5 0 0 0-7.103-3.192v3Zm-55.56 2.446a2.5 2.5 0 0 1 2.5-2.446v-3a5.5 5.5 0 0 0-5.498 5.381l2.999.065Z" fill="#0B6AB7" mask="url(#a)" class="svg__fill--primary-blue-03"/>
  <path d="M71.431 28.382h17.465M71.431 34.665h17.465M71.431 40.947h17.465M45.392 47.23h43.503M45.392 53.581h43.503M45.392 59.864h43.503M45.392 66.18h43.503M45.392 72.465h43.503M45.392 78.78h26.04M112.177 28.302h43.504M112.177 34.585h43.504M112.177 40.868h43.504M112.177 47.15h43.504M112.177 53.501h43.504M112.177 59.784h43.504M112.177 66.101h43.504M112.177 72.385h43.504M112.177 78.7h37.678" stroke="#0AA5FF" stroke-width="1.25" class="svg__stroke--default-cyan-03"/>
  <path d="m55.325 18 7.3 3.024 3.025 7.3-3.024 7.302-7.301 3.024-7.3-3.024L45 28.325l3.024-7.3 7.3-3.025Z" stroke="#FFD600" stroke-width="1.25" class="svg__stroke--secondary-yellow-03"/>
  <path d="M156.094 105.622v13.532M45.392 105.771v13.234M122.495 105.347v17.359M79.113 105.347v17.359" stroke="#00E0E0" stroke-width="1.25" stroke-linecap="round" stroke-linejoin="round" stroke-dasharray="0.13 4" class="svg__stroke--help-green-03"/>
  <path d="m152.281 118.699 3.813 3.812 3.812-3.812M49.401 118.699l-3.813 3.812-3.812-3.812M118.682 122.899l3.813 3.812 3.812-3.812M83 122.899l-3.813 3.812-3.812-3.812" stroke="#00E0E0" class="svg__stroke--help-green-03"/>
</svg>
